X: 23181
T: Le Reel Du Nord
R: reel
M: 4/4
K: Bminor
|:"Bm"FBBB FBBB|FBdB "A"c3B|"Bm"FBBB FBBd|"F#7"fedc B3A|
"Bm"FBBB FBBB|FBdB "A"c3B|"Bm"FBBB FBBd|"F#7"fedc B2BA:|
K: Dmaj
|:"A7"Acec Acec|"D"dcdf a4|"A7"Acec Acec|"D"defd A2BB|
"A7"Acec Acec|"D"dcdf a4|"A7"Acec Acec|"D"df"A7"ec "D"d2BB:|

